arrow-up-box.svg

<svg  viewBox="0 0 24 24" fill="currentColor"><path  d="M21,19A2,2 0 0,1 19,21H5A2,2 0 0,1 3,19V5A2,2 0 0,1 5,3H19C20.11,3 21,3.9 21,5V19M13,18V9.5L16.5,13L17.92,11.58L12,5.66L6.08,11.58L7.5,13L11,9.5V18H13Z"/></svg>

<svg fill="currentColor" viewBox="0 0 24 24"><path d="M21 19a2 2 0 0 1-2 2H5a2 2 0 0 1-2-2V5a2 2 0 0 1 2-2h14a2 2 0 0 1 2 2zm-8-1V9.5l3.5 3.5 1.42-1.42L12 5.66l-5.92 5.92L7.5 13 11 9.5V18z"/></svg>
